Newaita-dark/apps/256/clementine.svg

<?xml version="1.0" encoding="UTF-8"?>
<svg xmlns="http://www.w3.org/2000/svg" xmlns:xlink="http://www.w3.org/1999/xlink" width="256pt" height="256pt" viewBox="0 0 256 256" version="1.1">
<defs>
<radialGradient id="radial0" gradientUnits="userSpaceOnUse" cx="450.908936" cy="189.579361" fx="450.908936" fy="189.579361" r="21.166656" gradientTransform="matrix(0.00000139336,-0.62506,-1.125108,-0.000000812309,356.185215,508.762635)">
<stop offset="0" style="stop-color:rgb(0%,0%,0%);stop-opacity:0.313725;"/>
<stop offset="0.222222" style="stop-color:rgb(0%,0%,0%);stop-opacity:0.27451;"/>
<stop offset="1" style="stop-color:rgb(0%,0%,0%);stop-opacity:0;"/>
</radialGradient>
<radialGradient id="radial1" gradientUnits="userSpaceOnUse" cx="450.908936" cy="189.579361" fx="450.908936" fy="189.579361" r="21.166656" gradientTransform="matrix(-0.00000139336,0.62506,1.125108,0.000000812309,-102.160949,-60.219856)">
<stop offset="0" style="stop-color:rgb(0%,0%,0%);stop-opacity:0.313725;"/>
<stop offset="0.222222" style="stop-color:rgb(0%,0%,0%);stop-opacity:0.27451;"/>
<stop offset="1" style="stop-color:rgb(0%,0%,0%);stop-opacity:0;"/>
</radialGradient>
<radialGradient id="radial2" gradientUnits="userSpaceOnUse" cx="450.908936" cy="189.579361" fx="450.908936" fy="189.579361" r="21.166656" gradientTransform="matrix(-0.00000139336,-0.62506,1.125108,-0.000000812309,-102.160949,508.762635)">
<stop offset="0" style="stop-color:rgb(0%,0%,0%);stop-opacity:0.313725;"/>
<stop offset="0.222222" style="stop-color:rgb(0%,0%,0%);stop-opacity:0.27451;"/>
<stop offset="1" style="stop-color:rgb(0%,0%,0%);stop-opacity:0;"/>
</radialGradient>
<radialGradient id="radial3" gradientUnits="userSpaceOnUse" cx="450.908936" cy="189.579361" fx="450.908936" fy="189.579361" r="21.166656" gradientTransform="matrix(0.00000139336,0.62506,-1.125108,0.000000812309,356.1852,-60.21986)">
<stop offset="0" style="stop-color:rgb(0%,0%,0%);stop-opacity:0.313725;"/>
<stop offset="0.222222" style="stop-color:rgb(0%,0%,0%);stop-opacity:0.27451;"/>
<stop offset="1" style="stop-color:rgb(0%,0%,0%);stop-opacity:0;"/>
</radialGradient>
<linearGradient id="linear0" gradientUnits="userSpaceOnUse" x1="255.323059" y1="233.5" x2="255.323044" y2="254.666656" gradientTransform="matrix(0.10688,0,0,0.500048,99.723089,107.510269)">
<stop offset="0" style="stop-color:rgb(0%,0%,0%);stop-opacity:0.27451;"/>
<stop offset="1" style="stop-color:rgb(0%,0%,0%);stop-opacity:0;"/>
</linearGradient>
<linearGradient id="linear1" gradientUnits="userSpaceOnUse" x1="1040" y1="1695.118164" x2="1040" y2="175.118134" gradientTransform="matrix(0.132304,0,0,0.132304,0,0)">
<stop offset="0" style="stop-color:rgb(100%,65.490196%,14.901961%);stop-opacity:1;"/>
<stop offset="1" style="stop-color:rgb(100%,80%,50.196078%);stop-opacity:1;"/>
</linearGradient>
<linearGradient id="linear2" gradientUnits="userSpaceOnUse" x1="960" y1="1695.118164" x2="960" y2="175.118118" gradientTransform="matrix(0.132304,0,0,0.132304,0,0)">
<stop offset="0" style="stop-color:rgb(100%,80%,50.196078%);stop-opacity:1;"/>
<stop offset="1" style="stop-color:rgb(100%,87.843137%,69.803922%);stop-opacity:1;"/>
</linearGradient>
<linearGradient id="linear3" gradientUnits="userSpaceOnUse" x1="680" y1="255.118118" x2="640" y2="1695.118164" gradientTransform="matrix(0.132304,0,0,0.132304,0,0)">
<stop offset="0" style="stop-color:rgb(100%,43.921569%,26.27451%);stop-opacity:1;"/>
<stop offset="1" style="stop-color:rgb(100%,34.117647%,13.333333%);stop-opacity:1;"/>
</linearGradient>
</defs>
<g id="surface1">
<path style=" stroke:none;fill-rule:nonzero;fill:url(#radial0);" d="M 145.535156 224.269531 L 166.703125 224.269531 L 166.703125 213.6875 L 145.535156 213.6875 Z M 145.535156 224.269531 "/>
<path style=" stroke:none;fill-rule:nonzero;fill:url(#radial1);" d="M 108.488281 224.269531 L 87.320312 224.269531 L 87.320312 234.855469 L 108.488281 234.855469 Z M 108.488281 224.269531 "/>
<path style=" stroke:none;fill-rule:nonzero;fill:url(#radial2);" d="M 108.488281 224.269531 L 87.320312 224.269531 L 87.320312 213.6875 L 108.488281 213.6875 Z M 108.488281 224.269531 "/>
<path style=" stroke:none;fill-rule:nonzero;fill:url(#radial3);" d="M 145.535156 224.269531 L 166.703125 224.269531 L 166.703125 234.855469 L 145.535156 234.855469 Z M 145.535156 224.269531 "/>
<path style=" stroke:none;fill-rule:nonzero;fill:url(#linear0);" d="M 108.488281 221.625 L 145.535156 221.625 L 145.535156 234.855469 L 108.488281 234.855469 Z M 108.488281 221.625 "/>
<path style=" stroke:none;fill-rule:nonzero;fill:url(#linear1);" d="M 109.671875 25.261719 C 79.382812 28.460938 42.335938 75.078125 42.335938 123.71875 C 42.335938 179.425781 80.101562 224.273438 127.011719 224.273438 C 147.683594 224.273438 222.269531 203.101562 211.6875 184.582031 C 201.101562 166.058594 153.472656 163.410156 132.304688 107.84375 C 124.367188 86.675781 127.011719 23.167969 109.671875 25.261719 Z M 109.671875 25.261719 "/>
<path style=" stroke:none;fill-rule:nonzero;fill:url(#linear2);" d="M 92.765625 31.050781 C 67.152344 45.457031 42.335938 83.910156 42.335938 123.71875 C 42.335938 179.425781 80.101562 224.273438 127.011719 224.273438 C 140.773438 224.273438 178.4375 214.886719 198.953125 203.148438 C 186.75 202.5 175.679688 200.238281 169.609375 197.554688 C 140.242188 184.582031 86.285156 150.492188 86.90625 94.789062 C 87.15625 72.402344 87.496094 49.445312 92.765625 31.050781 Z M 92.765625 31.050781 "/>
<path style=" stroke:none;fill-rule:nonzero;fill:url(#linear3);" d="M 86.257812 35.238281 C 63.109375 52.011719 42.335938 87.296875 42.335938 123.71875 C 42.335938 179.425781 80.101562 224.273438 127.011719 224.273438 C 138.648438 224.273438 167.378906 217.5625 188.375 208.390625 C 188.207031 208.390625 188.039062 208.394531 187.871094 208.394531 C 124.835938 208.394531 74.089844 155.523438 74.089844 89.847656 L 74.089844 88.792969 C 74.089844 69.496094 78.472656 51.308594 86.257812 35.238281 Z M 86.257812 35.238281 "/>
<path style=" stroke:none;fill-rule:nonzero;fill:rgb(100%,100%,100%);fill-opacity:0.392157;" d="M 110.46875 25.210938 C 110.207031 25.214844 109.941406 25.230469 109.671875 25.261719 C 79.382812 28.460938 42.335938 75.078125 42.335938 123.71875 C 42.335938 127.164062 42.480469 130.566406 42.765625 133.917969 C 42.578125 131.175781 42.480469 128.398438 42.480469 125.59375 C 42.480469 76.953125 79.523438 30.335938 109.8125 27.136719 C 127.152344 25.042969 124.507812 88.550781 132.445312 109.71875 C 153.613281 165.285156 201.246094 167.933594 211.828125 186.453125 C 212.25 187.191406 212.535156 187.933594 212.695312 188.679688 C 212.777344 187.304688 212.460938 185.933594 211.6875 184.578125 C 201.101562 166.058594 153.472656 163.410156 132.304688 107.84375 C 124.488281 87.003906 126.933594 25.144531 110.46875 25.210938 Z M 110.46875 25.210938 "/>
<path style=" stroke:none;fill-rule:nonzero;fill:rgb(0%,0%,0%);fill-opacity:0.27451;" d="M 42.34375 122.726562 C 42.339844 123.058594 42.335938 123.390625 42.335938 123.71875 C 42.335938 179.425781 80.101562 224.273438 127.011719 224.273438 C 146.707031 224.273438 215.355469 205.050781 212.628906 187.214844 C 210.082031 204.429688 145.941406 222.183594 127.011719 222.183594 C 80.410156 222.183594 42.835938 177.921875 42.34375 122.726562 Z M 42.34375 122.726562 "/>
<path style=" stroke:none;fill-rule:nonzero;fill:rgb(12.941177%,12.941177%,12.941177%);fill-opacity:1;" d="M 110.464844 24.464844 C 110.175781 24.464844 109.882812 24.480469 109.585938 24.519531 C 94.097656 26.15625 77.164062 38.765625 64.035156 57.011719 C 50.90625 75.261719 41.585938 99.207031 41.585938 123.71875 C 41.585938 179.765625 79.625 225.023438 127.011719 225.023438 C 137.601562 225.023438 161.351562 219.710938 181.335938 212.074219 C 191.332031 208.253906 200.355469 203.863281 206.292969 199.183594 C 209.261719 196.847656 211.472656 194.4375 212.617188 191.914062 C 213.761719 189.390625 213.769531 186.714844 212.339844 184.207031 C 209.574219 179.375 204.496094 175.6875 198.175781 171.945312 C 191.855469 168.203125 184.265625 164.40625 176.363281 159.46875 C 160.558594 149.589844 143.527344 135.191406 133.007812 107.582031 L 133.003906 107.578125 C 129.132812 97.246094 127.761719 76.027344 125.257812 57.726562 C 124.003906 48.578125 122.464844 40.140625 120.105469 34.035156 C 118.925781 30.984375 117.546875 28.503906 115.824219 26.808594 C 114.316406 25.324219 112.496094 24.464844 110.464844 24.464844 Z M 110.472656 25.960938 C 112.097656 25.945312 113.472656 26.601562 114.769531 27.875 C 116.253906 29.335938 117.570312 31.640625 118.707031 34.578125 C 120.976562 40.449219 122.523438 48.820312 123.769531 57.929688 C 126.261719 76.148438 127.535156 97.265625 131.601562 108.105469 L 131.601562 108.109375 C 142.253906 136.066406 159.617188 150.769531 175.566406 160.738281 C 183.542969 165.722656 191.164062 169.535156 197.414062 173.234375 C 203.660156 176.933594 208.507812 180.527344 211.035156 184.953125 C 212.25 187.078125 212.242188 189.113281 211.253906 191.292969 C 210.261719 193.476562 208.222656 195.757812 205.363281 198.007812 C 199.648438 202.507812 190.71875 206.882812 180.800781 210.671875 C 160.972656 218.25 137.089844 223.519531 127.011719 223.519531 C 80.582031 223.519531 43.085938 179.085938 43.085938 123.71875 C 43.085938 99.589844 52.292969 75.90625 65.253906 57.886719 C 78.21875 39.871094 94.953125 27.570312 109.75 26.007812 L 109.761719 26.007812 C 110.003906 25.976562 110.242188 25.960938 110.472656 25.960938 Z M 110.472656 25.960938 "/>
</g>
</svg>

<svg xmlns="http://www.w3.org/2000/svg" width="256pt" height="256pt" viewBox="0 0 256 256"><defs><radialGradient id="a" gradientUnits="userSpaceOnUse" cx="450.909" cy="189.579" fx="450.909" fy="189.579" r="21.167" gradientTransform="matrix(0 -.62506 -1.1251 0 356.185 508.763)"><stop offset="0" stop-opacity=".314"/><stop offset=".222" stop-opacity=".275"/><stop offset="1" stop-opacity="0"/></radialGradient><radialGradient id="b" gradientUnits="userSpaceOnUse" cx="450.909" cy="189.579" fx="450.909" fy="189.579" r="21.167" gradientTransform="matrix(0 .62506 1.1251 0 -102.16 -60.22)"><stop offset="0" stop-opacity=".314"/><stop offset=".222" stop-opacity=".275"/><stop offset="1" stop-opacity="0"/></radialGradient><radialGradient id="c" gradientUnits="userSpaceOnUse" cx="450.909" cy="189.579" fx="450.909" fy="189.579" r="21.167" gradientTransform="matrix(0 -.62506 1.1251 0 -102.16 508.763)"><stop offset="0" stop-opacity=".314"/><stop offset=".222" stop-opacity=".275"/><stop offset="1" stop-opacity="0"/></radialGradient><radialGradient id="d" gradientUnits="userSpaceOnUse" cx="450.909" cy="189.579" fx="450.909" fy="189.579" r="21.167" gradientTransform="matrix(0 .62506 -1.1251 0 356.185 -60.22)"><stop offset="0" stop-opacity=".314"/><stop offset=".222" stop-opacity=".275"/><stop offset="1" stop-opacity="0"/></radialGradient><linearGradient id="e" gradientUnits="userSpaceOnUse" x1="255.323" y1="233.5" x2="255.323" y2="254.667" gradientTransform="matrix(.10688 0 0 .50005 99.723 107.51)"><stop offset="0" stop-opacity=".275"/><stop offset="1" stop-opacity="0"/></linearGradient><linearGradient id="f" gradientUnits="userSpaceOnUse" x1="1040" y1="1695.118" x2="1040" y2="175.118" gradientTransform="scale(.1323)"><stop offset="0" stop-color="#ffa726"/><stop offset="1" stop-color="#ffcc80"/></linearGradient><linearGradient id="g" gradientUnits="userSpaceOnUse" x1="960" y1="1695.118" x2="960" y2="175.118" gradientTransform="scale(.1323)"><stop offset="0" stop-color="#ffcc80"/><stop offset="1" stop-color="#ffe0b2"/></linearGradient><linearGradient id="h" gradientUnits="userSpaceOnUse" x1="680" y1="255.118" x2="640" y2="1695.118" gradientTransform="scale(.1323)"><stop offset="0" stop-color="#ff7043"/><stop offset="1" stop-color="#ff5722"/></linearGradient></defs><path d="M145.535 224.27h21.168v-10.583h-21.168zm0 0" fill="url(#a)"/><path d="M108.488 224.27H87.32v10.585h21.168zm0 0" fill="url(#b)"/><path d="M108.488 224.27H87.32v-10.583h21.168zm0 0" fill="url(#c)"/><path d="M145.535 224.27h21.168v10.585h-21.168zm0 0" fill="url(#d)"/><path d="M108.488 221.625h37.047v13.23h-37.047zm0 0" fill="url(#e)"/><path d="M109.672 25.262c-30.29 3.199-67.336 49.816-67.336 98.457 0 55.707 37.766 100.554 84.676 100.554 20.672 0 95.258-21.171 84.675-39.691-10.585-18.523-58.214-21.172-79.382-76.738-7.938-21.168-5.293-84.676-22.633-82.582zm0 0" fill="url(#f)"/><path d="M92.766 31.05c-25.614 14.407-50.43 52.86-50.43 92.669 0 55.707 37.766 100.554 84.676 100.554 13.761 0 51.425-9.386 71.941-21.125-12.203-.648-23.273-2.91-29.344-5.593-29.367-12.973-83.324-47.063-82.703-102.766.25-22.387.59-45.344 5.86-63.738zm0 0" fill="url(#g)"/><path d="M86.258 35.238c-23.149 16.774-43.922 52.059-43.922 88.48 0 55.708 37.766 100.555 84.676 100.555 11.636 0 40.367-6.71 61.363-15.882-.168 0-.336.004-.504.004-63.035 0-113.781-52.872-113.781-118.547v-1.055c0-19.297 4.383-37.484 12.168-53.555zm0 0" fill="url(#h)"/><path d="M110.469 25.21c-.262.005-.528.02-.797.052-30.29 3.199-67.336 49.816-67.336 98.457 0 3.445.144 6.847.43 10.199-.188-2.742-.286-5.52-.286-8.324 0-48.64 37.043-95.258 67.333-98.457 17.34-2.094 14.695 61.414 22.632 82.582 21.168 55.566 68.801 58.215 79.383 76.734.422.738.707 1.48.867 2.227.082-1.375-.234-2.746-1.007-4.102-10.586-18.52-58.215-21.168-79.383-76.734-7.817-20.84-5.371-82.7-21.836-82.633zm0 0" fill="#fff" fill-opacity=".392"/><path d="M42.344 122.727c-.004.332-.008.664-.008.992 0 55.707 37.766 100.554 84.676 100.554 19.695 0 88.343-19.222 85.617-37.058-2.547 17.215-66.688 34.969-85.617 34.969-46.602 0-84.176-44.262-84.668-99.457zm0 0" fill-opacity=".275"/><path d="M110.465 24.465c-.29 0-.582.015-.88.055-15.487 1.636-32.42 14.246-45.55 32.492-13.129 18.25-22.45 42.195-22.45 66.707 0 56.047 38.04 101.304 85.427 101.304 10.59 0 34.34-5.312 54.324-12.949 9.996-3.82 19.02-8.21 24.957-12.89 2.969-2.336 5.18-4.746 6.324-7.27 1.145-2.523 1.153-5.2-.277-7.707-2.766-4.832-7.844-8.52-14.164-12.262-6.32-3.742-13.91-7.539-21.813-12.476-15.804-9.88-32.836-24.278-43.355-51.887l-.004-.004c-3.871-10.332-5.242-31.55-7.746-49.851-1.254-9.149-2.793-17.586-5.153-23.692-1.18-3.05-2.558-5.531-4.28-7.226-1.509-1.485-3.329-2.344-5.36-2.344zm.008 1.496c1.625-.016 3 .64 4.297 1.914 1.484 1.46 2.8 3.766 3.937 6.703 2.27 5.871 3.816 14.242 5.063 23.352 2.492 18.218 3.765 39.336 7.832 50.175v.004c10.652 27.957 28.015 42.66 43.964 52.63 7.977 4.984 15.598 8.796 21.848 12.495 6.246 3.7 11.094 7.293 13.621 11.72 1.215 2.124 1.207 4.16.219 6.339-.992 2.184-3.031 4.465-5.89 6.715-5.716 4.5-14.645 8.875-24.563 12.664-19.828 7.578-43.711 12.848-53.79 12.848-46.429 0-83.925-44.434-83.925-99.801 0-24.13 9.207-47.813 22.168-65.832 12.965-18.016 29.7-30.317 44.496-31.88h.012c.242-.03.48-.046.71-.046zm0 0" fill="#212121"/></svg>
